misc/labs_ocio/luts/Log2_48_nits_Shaper_to_linear.spi1d
Version 1
From 0 1
Length 4096
Components 1
{
 1.1857370846e-03
 1.1892585317e-03
 1.1927908054e-03
 1.1963332072e-03
 1.1998864356e-03
 1.2034499086e-03
 1.2070243247e-03
 1.2106089853e-03
 1.2142042397e-03
 1.2178106699e-03
 1.2214272283e-03
 1.2250550790e-03
 1.2286932906e-03
 1.2323426781e-03
 1.2360024266e-03
 1.2396731181e-03
 1.2433551019e-03
 1.2470476795e-03
 1.2507515494e-03
 1.2544661295e-03
 1.2581920018e-03
 1.2619287008e-03
 1.2656763429e-03
 1.2694356265e-03
 1.2732055038e-03
 1.2769871391e-03
 1.2807796011e-03
 1.2845837045e-03
 1.2883986346e-03
 1.2922248570e-03
 1.2960630702e-03
 1.2999121100e-03
 1.3037730241e-03
 1.3076449977e-03
 1.3115288457e-03
 1.3154238695e-03
 1.3193308841e-03
 1.3232489582e-03
 1.3271789066e-03
 1.3311207294e-03
 1.3350739609e-03
 1.3390392996e-03
 1.3430159306e-03
 1.3470049016e-03
 1.3510052813e-03
 1.3550175354e-03
 1.3590421295e-03
 1.3630782487e-03
 1.3671268243e-03
 1.3711869251e-03
 1.3752594823e-03
 1.3793436810e-03
 1.3834401034e-03
 1.3875490986e-03
 1.3916698517e-03
 1.3958034106e-03
 1.3999486109e-03
 1.4041067334e-03
 1.4082766138e-03
 1.4124588342e-03
 1.4166542096e-03
 1.4208613429e-03
 1.4250815148e-03
 1.4293136774e-03
 1.4335589949e-03
 1.4378163032e-03
 1.4420864172e-03
 1.4463696862e-03
 1.4506650623e-03
 1.4549737098e-03
 1.4592948137e-03
 1.4636290725e-03
 1.4679757878e-03
 1.4723358909e-03
 1.4767084504e-03
 1.4810939319e-03
 1.4854930341e-03
 1.4899045927e-03
 1.4943300048e-03
 1.4987678733e-03
 1.5032187803e-03
 1.5076836571e-03
 1.5121611068e-03
 1.5166524099e-03
 1.5211567516e-03
 1.5256747138e-03
 1.5302057145e-03
 1.5347506851e-03
 1.5393085778e-03
 1.5438798582e-03
 1.5484654577e-03
 1.5530640958e-03
 1.5576770529e-03
 1.5623030486e-03
 1.5669426648e-03
 1.5715968329e-03
 1.5762640396e-03
 1.5809457982e-03
 1.5856410610e-03
 1.5903505264e-03
 1.5950736124e-03
 1.5998111339e-03
 1.6045623925e-03
 1.6093276208e-03
 1.6141075175e-03
 1.6189011512e-03
 1.6237094533e-03
 1.6285316087e-03
 1.6333686654e-03
 1.6382194590e-03
 1.6430845717e-03
 1.6479647020e-03
 1.6528589185e-03
 1.6577681527e-03
 1.6626913566e-03
 1.6676298110e-03
 1.6725823516e-03
 1.6775496770e-03
 1.6825321363e-03
 1.6875289148e-03
 1.6925411765e-03
 1.6975677572e-03
 1.7026092391e-03
 1.7076662043e-03
 1.7127374886e-03
 1.7178247217e-03
 1.7229262739e-03
 1.7280437751e-03
 1.7331755953e-03
 1.7383234808e-03
 1.7434859183e-03
 1.7486637225e-03
 1.7538574757e-03
 1.7590661300e-03
 1.7642907333e-03
 1.7695304705e-03
 1.7747860402e-03
 1.7800569767e-03
 1.7853439786e-03
 1.7906461144e-03
 1.7959639663e-03
 1.8012982327e-03
 1.8066477496e-03
 1.8120137975e-03
 1.8173952121e-03
 1.8227924593e-03
 1.8282064702e-03
 1.8336357316e-03
 1.8390819896e-03
 1.8445436144e-03
 1.8500222359e-03
 1.8555165734e-03
 1.8610276747e-03
 1.8665544922e-03
 1.8720978405e-03
 1.8776581855e-03
 1.8832344795e-03
 1.8888281193e-03
 1.8944374751e-03
 1.9000634784e-03
 1.9057070604e-03
 1.9113667076e-03
 1.9170437008e-03
 1.9227368757e-03
 1.9284478622e-03
 1.9341749139e-03
 1.9399196608e-03
 1.9456808222e-03
 1.9514592132e-03
 1.9572551828e-03
 1.9630680326e-03
 1.9688985776e-03
 1.9747458864e-03
 1.9806111231e-03
 1.9864931237e-03
 1.9923928194e-03
 1.9983104430e-03
 2.0042448305e-03
 2.0101978444e-03
 2.0161678549e-03
 2.0221560262e-03
 2.0281614270e-03
 2.0341847558e-03
 2.0402264781e-03
 2.0462856628e-03
 2.0523634739e-03
 2.0584585145e-03
 2.0645724144e-03
 2.0707037766e-03
 2.0768542308e-03
 2.0830221474e-03
 2.0892082248e-03
 2.0954133943e-03
 2.1016364917e-03
 2.1078786813e-03
 2.1141385660e-03
 2.1204173099e-03
 2.1267151460e-03
 2.1330309100e-03
 2.1393664647e-03
 2.1457199473e-03
 2.1520932205e-03
 2.1584844217e-03
 2.1648954134e-03
 2.1713247988e-03
 2.1777730435e-03
 2.1842413116e-03
 2.1907282062e-03
 2.1972351242e-03
 2.2037604358e-03
 2.2103050724e-03
 2.2168699652e-03
 2.2234537173e-03
 2.2300577257e-03
 2.2366805933e-03
 2.2433237173e-03
 2.2499859333e-03
 2.2566688713e-03
 2.2633706685e-03
 2.2700924892e-03
 2.2768350318e-03
 2.2835968994e-03
 2.2903794888e-03
 2.2971814033e-03
 2.3040035740e-03
 2.3108469322e-03
 2.3177096155e-03
 2.3245934863e-03
 2.3314971477e-03
 2.3384219967e-03
 2.3453666363e-03
 2.3523326963e-03
 2.3593187798e-03
 2.3663255852e-03
 2.3733538110e-03
 2.3804022931e-03
 2.3874724284e-03
 2.3945625871e-03
 2.4016739335e-03
 2.4088073988e-03
 2.4159620516e-03
 2.4231369607e-03
 2.4303330574e-03
 2.4375515059e-03
 2.4447906762e-03
 2.4520519655e-03
 2.4593342096e-03
 2.4666378740e-03
 2.4739641231e-03
 2.4813113268e-03
 2.4886811152e-03
 2.4960720912e-03
 2.5034849532e-03
 2.5109206326e-03
 2.5183784310e-03
 2.5258576497e-03
 2.5333589874e-03
 2.5408833753e-03
 2.5484291837e-03
 2.5559985079e-03
 2.5635894854e-03
 2.5712028146e-03
 2.5788396597e-03
 2.5864990894e-03
 2.5941806380e-03
 2.6018847711e-03
 2.6096128859e-03
 2.6173626538e-03
 2.6251366362e-03
 2.6329329703e-03
 2.6407521218e-03
 2.6485954877e-03
 2.6564614382e-03
 2.6643513702e-03
 2.6722641196e-03
 2.6802003849e-03
 2.6881608646e-03
 2.6961450931e-03
 2.7041521389e-03
 2.7121829335e-03
 2.7202384081e-03
 2.7283171657e-03
 2.7364206035e-03
 2.7445470914e-03
 2.7526980266e-03
 2.7608738746e-03
 2.7690732386e-03
 2.7772977483e-03
 2.7855457738e-03
 2.7938182466e-03
 2.8021163307e-03
 2.8104390949e-03
 2.8187856078e-03
 2.8271568008e-03
 2.8355536051e-03
 2.8439748567e-03
 2.8524217196e-03
 2.8608932626e-03
 2.8693894856e-03
 2.8779117856e-03
 2.8864587657e-03
 2.8950320557e-03
 2.9036295600e-03
 2.9122538399e-03
 2.9209025670e-03
 2.9295783024e-03
 2.9382787179e-03
 2.9470045120e-03
 2.9557575472e-03
 2.9645357281e-03
 2.9733406845e-03
 2.9821710195e-03
 2.9910276644e-03
 2.9999113176e-03
 3.0088203494e-03
 3.0177570879e-03
 3.0267194379e-03
 3.0357092619e-03
 3.0447244644e-03
 3.0537678394e-03
 3.0628370587e-03
 3.0719330534e-03
 3.0810569879e-03
 3.0902072322e-03
 3.0993854161e-03
 3.1085901428e-03
 3.1178221107e-03
 3.1270822510e-03
 3.1363705639e-03
 3.1456847209e-03
 3.1550268177e-03
 3.1643980183e-03
 3.1737952959e-03
 3.1832219101e-03
 3.1926757656e-03
 3.2021573279e-03
 3.2116682269e-03
 3.2212061342e-03
 3.2307736110e-03
 3.2403685618e-03
 3.2499914523e-03
 3.2596443780e-03
 3.2693261746e-03
 3.2790354453e-03
 3.2887735870e-03
 3.2985419966e-03
 3.3083378803e-03
 3.3181640320e-03
 3.3280183561e-03
 3.3379020169e-03
 3.3478161786e-03
 3.3577582799e-03
 3.3677315805e-03
 3.3777330536e-03
 3.3877643291e-03
 3.3978261054e-03
 3.4079183824e-03
 3.4180392977e-03
 3.4281902481e-03
 3.4383723978e-03
 3.4485836513e-03
 3.4588263370e-03
 3.4690985922e-03
 3.4794013482e-03
 3.4897355363e-03
 3.5000990611e-03
 3.5104951821e-03
 3.5209204070e-03
 3.5313770641e-03
 3.5418658517e-03
 3.5523853730e-03
 3.5629356280e-03
 3.5735168494e-03
 3.5841306672e-03
 3.5947747529e-03
 3.6054519005e-03
 3.6161593162e-03
 3.6268986296e-03
 3.6376710050e-03
 3.6484743468e-03
 3.6593107507e-03
 3.6701781210e-03
 3.6810778547e-03
 3.6920113489e-03
 3.7029772066e-03
 3.7139742635e-03
 3.7250041496e-03
 3.7360677961e-03
 3.7471631076e-03
 3.7582928780e-03
 3.7694543134e-03
 3.7806488108e-03
 3.7918779999e-03
 3.8031390868e-03
 3.8144348655e-03
 3.8257630076e-03
 3.8371260744e-03
 3.8485217374e-03
 3.8599523250e-03
 3.8714157417e-03
 3.8829131518e-03
 3.8944459520e-03
 3.9060115814e-03
 3.9176130667e-03
 3.9292476140e-03
 3.9409170859e-03
 3.9526214823e-03
 3.9643617347e-03
 3.9761350490e-03
 3.9879432879e-03
 3.9997883141e-03
 4.0116668679e-03
 4.0235822089e-03
 4.0355315432e-03
 4.0475162677e-03
 4.0595377795e-03
 4.0715937503e-03
 4.0836869739e-03
 4.0958146565e-03
 4.1079786606e-03
 4.1201799177e-03
 4.1324174963e-03
 4.1446899995e-03
 4.1569988243e-03
 4.1693458334e-03
 4.1817277670e-03
 4.1941483505e-03
 4.2066043243e-03
 4.2190966196e-03
 4.2316284962e-03
 4.2441957630e-03
 4.2568012141e-03
 4.2694434524e-03
 4.2821229436e-03
 4.2948410846e-03
 4.3075974099e-03
 4.3203900568e-03
 4.3332208879e-03
 4.3460913002e-03
 4.3589980341e-03
 4.3719452806e-03
 4.3849293143e-03
 4.3979515322e-03
 4.4110137969e-03
 4.4241137803e-03
 4.4372538105e-03
 4.4504320249e-03
 4.4636488892e-03
 4.4769062661e-03
 4.4902036898e-03
 4.5035388321e-03
 4.5169130899e-03
 4.5303292572e-03
 4.5437831432e-03
 4.5572789386e-03
 4.5708133839e-03
 4.5843878761e-03
 4.5980042778e-03
 4.6116593294e-03
 4.6253567562e-03
 4.6390928328e-03
 4.6528703533e-03
 4.6666897833e-03
 4.6805506572e-03
 4.6944511123e-03
 4.7083930112e-03
 4.7223772854e-03
 4.7364016064e-03
 4.7504696995e-03
 4.7645778395e-03
 4.7787278891e-03
 4.7929207794e-03
 4.8071569763e-03
 4.8214332201e-03
 4.8357518390e-03
 4.8501128331e-03
 4.8645185307e-03
 4.8789670691e-03
 4.8934565857e-03
 4.9079889432e-03
 4.9225664698e-03
 4.9371854402e-03
 4.9518500455e-03
 4.9665560946e-03
 4.9813054502e-03
 4.9961009063e-03
 5.0109401345e-03
 5.0258217379e-03
 5.0407475792e-03
 5.0557176583e-03
 5.0707333721e-03
 5.0857942551e-03
 5.1008984447e-03
 5.1160468720e-03
 5.1312423311e-03
 5.1464810967e-03
 5.1617668942e-03
 5.1770964637e-03
 5.1924716681e-03
 5.2078939043e-03
 5.2233617753e-03
 5.2388743497e-03
 5.2544330247e-03
 5.2700378001e-03
 5.2856905386e-03
 5.3013898432e-03
 5.3171333857e-03
 5.3329244256e-03
 5.3487643600e-03
 5.3646503948e-03
 5.3805825301e-03
 5.3965621628e-03
 5.4125906900e-03
 5.4286667146e-03
 5.4447888397e-03
 5.4609589279e-03
 5.4771769792e-03
 5.4934448563e-03
 5.5097611621e-03
 5.5261244997e-03
 5.5425358005e-03
 5.5589959957e-03
 5.5755069479e-03
 5.5920672603e-03
 5.6086746044e-03
 5.6253313087e-03
 5.6420387700e-03
 5.6587965228e-03
 5.6756022386e-03
 5.6924577802e-03
 5.7093636133e-03
 5.7263211347e-03
 5.7433294132e-03
 5.7603851892e-03
 5.7774931192e-03
 5.7946513407e-03
 5.8118617162e-03
 5.8291237801e-03
 5.8464352041e-03
 5.8637978509e-03
 5.8812140487e-03
 5.8986828662e-03
 5.9162001126e-03
 5.9337709099e-03
 5.9513929300e-03
 5.9690694325e-03
 5.9867980890e-03
 6.0045779683e-03
 6.0224104673e-03
 6.0402960517e-03
 6.0582361184e-03
 6.0762302019e-03
 6.0942755081e-03
 6.1123743653e-03
 6.1305291019e-03
 6.1487369239e-03
 6.1669982970e-03
 6.1853132211e-03
 6.2036821619e-03
 6.2221074477e-03
 6.2405886129e-03
 6.2591219321e-03
 6.2777106650e-03
 6.2963557430e-03
 6.3150548376e-03
 6.3338116743e-03
 6.3526220620e-03
 6.3714878634e-03
 6.3904123381e-03
 6.4093922265e-03
 6.4284270629e-03
 6.4475182444e-03
 6.4666662365e-03
 6.4858733676e-03
 6.5051368438e-03
 6.5244561993e-03
 6.5438323654e-03
 6.5632686019e-03
 6.5827607177e-03
 6.6023119725e-03
 6.6219195724e-03
 6.6415858455e-03
 6.6613117233e-03
 6.6810972057e-03
 6.7009390332e-03
 6.7208395340e-03
 6.7407991737e-03
 6.7608198151e-03
 6.7809009925e-03
 6.8010389805e-03
 6.8212365732e-03
 6.8414965644e-03
 6.8618142977e-03
 6.8821953610e-03
 6.9026337005e-03
 6.9231330417e-03
 6.9436961785e-03
 6.9643198512e-03
 6.9850021973e-03
 7.0057464764e-03
 7.0265522227e-03
 7.0474226959e-03
 7.0683541708e-03
 7.0893457159e-03
 7.1103996597e-03
 7.1315187961e-03
 7.1527007967e-03
 7.1739424020e-03
 7.1952478029e-03
 7.2166165337e-03
 7.2380504571e-03
 7.2595486417e-03
 7.2811082937e-03
 7.3027322069e-03
 7.3244199157e-03
 7.3461737484e-03
 7.3679937050e-03
 7.3898751289e-03
 7.4118217453e-03
 7.4338358827e-03
 7.4559152126e-03
 7.4780578725e-03
 7.5002661906e-03
 7.5225406326e-03
 7.5448839925e-03
 7.5672930107e-03
 7.5897667557e-03
 7.6123066247e-03
 7.6349135488e-03
 7.6575903222e-03
 7.6803346165e-03
 7.7031436376e-03
 7.7260211110e-03
 7.7489679679e-03
 7.7719837427e-03
 7.7950651757e-03
 7.8182155266e-03
 7.8414333984e-03
 7.8647239134e-03
 7.8880833462e-03
 7.9115089029e-03
 7.9350043088e-03
 7.9585732892e-03
 7.9822083935e-03
 8.0059170723e-03
 8.0296928063e-03
 8.0535393208e-03
 8.0774594098e-03
 8.1014512107e-03
 8.1255100667e-03
 8.1496415660e-03
 8.1738447770e-03
 8.1981215626e-03
 8.2224719226e-03
 8.2468912005e-03
 8.2713821903e-03
 8.2959504798e-03
 8.3205876872e-03
 8.3453003317e-03
 8.3700846881e-03
 8.3949426189e-03
 8.4198759869e-03
 8.4448847920e-03
 8.4699643776e-03
 8.4951184690e-03
 8.5203479975e-03
 8.5456548259e-03
 8.5710361600e-03
 8.5964901373e-03
 8.6220204830e-03
 8.6476290599e-03
 8.6733112112e-03
 8.6990715936e-03
 8.7249064818e-03
 8.7508177385e-03
 8.7768081576e-03
 8.8028768077e-03
 8.8290199637e-03
 8.8552404195e-03
 8.8815391064e-03
 8.9079178870e-03
 8.9343758300e-03
 8.9609092101e-03
 8.9875217527e-03
 9.0142162517e-03
 9.0409889817e-03
 9.0678399429e-03
 9.0947700664e-03
 9.1217784211e-03
 9.1488715261e-03
 9.1760456562e-03
 9.2032961547e-03
 9.2306286097e-03
 9.2580420896e-03
 9.2855393887e-03
 9.3131186441e-03
 9.3407770619e-03
 9.3685183674e-03
 9.3963434920e-03
 9.4242524356e-03
 9.4522405416e-03
 9.4803115353e-03
 9.5084663481e-03
 9.5367077738e-03
 9.5650330186e-03
 9.5934392884e-03
 9.6219303086e-03
 9.6505051479e-03
 9.6791684628e-03
 9.7079174593e-03
 9.7367484123e-03
 9.7656641155e-03
 9.7946701571e-03
 9.8237609491e-03
 9.8529364914e-03
 9.8821977153e-03
 9.9115455523e-03
 9.9409846589e-03
 9.9705113098e-03
 1.0000120848e-02
 1.0029819794e-02
 1.0059606284e-02
 1.0089484975e-02
 1.0119452141e-02
 1.0149504989e-02
 1.0179647245e-02
 1.0209881701e-02
 1.0240207426e-02
 1.0270618834e-02
 1.0301119648e-02
 1.0331712663e-02
 1.0362398811e-02
 1.0393177159e-02
 1.0424043052e-02
 1.0455000214e-02
 1.0486053303e-02
 1.0517194867e-02
 1.0548432358e-02
 1.0579759255e-02
 1.0611178353e-02
 1.0642696172e-02
 1.0674306192e-02
 1.0706006549e-02
 1.0737801902e-02
 1.0769690387e-02
 1.0801678523e-02
 1.0833760723e-02
 1.0865935124e-02
 1.0898204520e-02
 1.0930574499e-02
 1.0963035747e-02
 1.0995597579e-02
 1.1028252542e-02
 1.1061004363e-02
 1.1093856767e-02
 1.1126806960e-02
 1.1159852147e-02
 1.1192995124e-02
 1.1226234958e-02
 1.1259578168e-02
 1.1293020099e-02
 1.1326559819e-02
 1.1360199191e-02
 1.1393938214e-02
 1.1427776888e-02
 1.1461716145e-02
 1.1495757848e-02
 1.1529901065e-02
 1.1564143002e-02
 1.1598489247e-02
 1.1632937007e-02
 1.1667486280e-02
 1.1702136137e-02
 1.1736891232e-02
 1.1771748774e-02
 1.1806711555e-02
 1.1841777712e-02
 1.1876946315e-02
 1.1912222020e-02
 1.1947599240e-02
 1.1983081698e-02
 1.2018672191e-02
 1.2054366991e-02
 1.2090167962e-02
 1.2126076035e-02
 1.2162089348e-02
 1.2198209763e-02
 1.2234437279e-02
 1.2270772830e-02
 1.2307217345e-02
 1.2343768962e-02
 1.2380429544e-02
 1.2417200021e-02
 1.2454076670e-02
 1.2491065077e-02
 1.2528163381e-02
 1.2565371580e-02
 1.2602690607e-02
 1.2640119530e-02
 1.2677661143e-02
 1.2715311721e-02
 1.2753075920e-02
 1.2790950947e-02
 1.2828940526e-02
 1.2867042795e-02
 1.2905257754e-02
 1.2943584472e-02
 1.2982024811e-02
 1.3020581566e-02
 1.3059252873e-02
 1.3098038733e-02
 1.3136938214e-02
 1.3175955042e-02
 1.3215087354e-02
 1.3254336081e-02
 1.3293699361e-02
 1.3333180919e-02
 1.3372779824e-02
 1.3412497006e-02
 1.3452331536e-02
 1.3492285274e-02
 1.3532356359e-02
 1.3572545722e-02
 1.3612855226e-02
 1.3653284870e-02
 1.3693834655e-02
 1.3734505512e-02
 1.3775297441e-02
 1.3816209510e-02
 1.3857240789e-02
 1.3898395933e-02
 1.3939674012e-02
 1.3981075026e-02
 1.4022598974e-02
 1.4064244926e-02
 1.4106015675e-02
 1.4147907495e-02
 1.4189926907e-02
 1.4232071117e-02
 1.4274340123e-02
 1.4316733927e-02
 1.4359254390e-02
 1.4401900582e-02
 1.4444672503e-02
 1.4487572946e-02
 1.4530600049e-02
 1.4573754743e-02
 1.4617038891e-02
 1.4660452493e-02
 1.4703992754e-02
 1.4747661538e-02
 1.4791460708e-02
 1.4835391194e-02
 1.4879452065e-02
 1.4923644252e-02
 1.4967967756e-02
 1.5012420714e-02
 1.5057007782e-02
 1.5101723373e-02
 1.5146575868e-02
 1.5191561542e-02
 1.5236679465e-02
 1.5281932428e-02
 1.5327319503e-02
 1.5372841619e-02
 1.5418495052e-02
 1.5464289114e-02
 1.5510216355e-02
 1.5556281433e-02
 1.5602484345e-02
 1.5648821369e-02
 1.5695299953e-02
 1.5741910785e-02
 1.5788665041e-02
 1.5835555270e-02
 1.5882587060e-02
 1.5929758549e-02
 1.5977069736e-02
 1.6024522483e-02
 1.6072111204e-02
 1.6119845212e-02
 1.6167720780e-02
 1.6215737909e-02
 1.6263898462e-02
 1.6312202439e-02
 1.6360647976e-02
 1.6409236938e-02
 1.6457973048e-02
 1.6506850719e-02
 1.6555877402e-02
 1.6605047509e-02
 1.6654362902e-02
 1.6703827307e-02
 1.6753433272e-02
 1.6803191975e-02
 1.6853095964e-02
 1.6903150827e-02
 1.6953352839e-02
 1.7003702000e-02
 1.7054203898e-02
 1.7104854807e-02
 1.7155652866e-02
 1.7206605524e-02
 1.7257707193e-02
 1.7308961600e-02
 1.7360368744e-02
 1.7411928624e-02
 1.7463643104e-02
 1.7515506595e-02
 1.7567526549e-02
 1.7619702965e-02
 1.7672032118e-02
 1.7724517733e-02
 1.7777159810e-02
 1.7829956487e-02
 1.7882909626e-02
 1.7936021090e-02
 1.7989289016e-02
 1.8042717129e-02
 1.8096303567e-02
 1.8150050193e-02
 1.8203955144e-02
 1.8258016557e-02
 1.8312243745e-02
 1.8366631120e-02
 1.8421178684e-02
 1.8475890160e-02
 1.8530761823e-02
 1.8585797399e-02
 1.8640993163e-02
 1.8696356565e-02
 1.8751885742e-02
 1.8807578832e-02
 1.8863435835e-02
 1.8919460475e-02
 1.8975650892e-02
 1.9032005221e-02
 1.9088532776e-02
 1.9145222381e-02
 1.9202087075e-02
 1.9259113818e-02
 1.9316308200e-02
 1.9373681396e-02
 1.9431216642e-02
 1.9488930702e-02
 1.9546808675e-02
 1.9604865462e-02
 1.9663088024e-02
 1.9721483812e-02
 1.9780060276e-02
 1.9838802516e-02
 1.9897727296e-02
 1.9956817850e-02
 2.0016094670e-02
 2.0075539127e-02
 2.0135158673e-02
 2.0194962621e-02
 2.0254937932e-02
 2.0315099508e-02
 2.0375430584e-02
 2.0435947925e-02
 2.0496638492e-02
 2.0557509735e-02
 2.0618569106e-02
 2.0679803565e-02
 2.0741224289e-02
 2.0802821964e-02
 2.0864609629e-02
 2.0926572382e-02
 2.0988721400e-02
 2.1051060408e-02
 2.1113578230e-02
 2.1176289767e-02
 2.1239178255e-02
 2.1302262321e-02
 2.1365525201e-02
 2.1428978071e-02
 2.1492622793e-02
 2.1556453779e-02
 2.1620478481e-02
 2.1684687585e-02
 2.1749094129e-02
 2.1813685074e-02
 2.1878467873e-02
 2.1943449974e-02
 2.2008618340e-02
 2.2073986009e-02
 2.2139541805e-02
 2.2205300629e-02
 2.2271243855e-02
 2.2337386385e-02
 2.2403731942e-02
 2.2470265627e-02
 2.2537007928e-02
 2.2603936493e-02
 2.2671075538e-02
 2.2738404572e-02
 2.2805931047e-02
 2.2873668000e-02
 2.2941600531e-02
 2.3009737954e-02
 2.3078072816e-02
 2.3146620020e-02
 2.3215359077e-02
 2.3284314200e-02
 2.3353463039e-02
 2.3422816768e-02
 2.3492386565e-02
 2.3562155664e-02
 2.3632137105e-02
 2.3702319711e-02
 2.3772720248e-02
 2.3843320087e-02
 2.3914130405e-02
 2.3985158652e-02
 2.4056389928e-02
 2.4127840996e-02
 2.4199496955e-02
 2.4271372706e-02
 2.4343453348e-02
 2.4415750057e-02
 2.4488268420e-02
 2.4560993537e-02
 2.4633942172e-02
 2.4707110599e-02
 2.4780483916e-02
 2.4854088202e-02
 2.4927899241e-02
 2.5001930073e-02
 2.5076190010e-02
 2.5150662288e-02
 2.5225361809e-02
 2.5300275534e-02
 2.5375422090e-02
 2.5450782850e-02
 2.5526367128e-02
 2.5602182373e-02
 2.5678217411e-02
 2.5754483417e-02
 2.5830969214e-02
 2.5907691568e-02
 2.5984633714e-02
 2.6061803102e-02
 2.6139209047e-02
 2.6216836646e-02
 2.6294706389e-02
 2.6372797787e-02
 2.6451127604e-02
 2.6529682800e-02
 2.6608468965e-02
 2.6687500998e-02
 2.6766756549e-02
 2.6846259832e-02
 2.6925986633e-02
 2.7005961165e-02
 2.7086164802e-02
 2.7166604996e-02
 2.7247292921e-02
 2.7328213677e-02
 2.7409382164e-02
 2.7490781620e-02
 2.7572434396e-02
 2.7654318139e-02
 2.7736447752e-02
 2.7818828821e-02
 2.7901444584e-02
 2.7984317392e-02
 2.8067424893e-02
 2.8150787577e-02
 2.8234392405e-02
 2.8318243101e-02
 2.8402352706e-02
 2.8486702591e-02
 2.8571309522e-02
 2.8656162322e-02
 2.8741275892e-02
 2.8826631606e-02
 2.8912240639e-02
 2.8998114169e-02
 2.9084233567e-02
 2.9170617461e-02
 2.9257250950e-02
 2.9344148934e-02
 2.9431292787e-02
 2.9518699273e-02
 2.9606373981e-02
 2.9694300145e-02
 2.9782496393e-02
 2.9870944098e-02
 2.9959663749e-02
 3.0048638582e-02
 3.0137877911e-02
 3.0227391049e-02
 3.0317163095e-02
 3.0407207087e-02
 3.0497511849e-02
 3.0588092282e-02
 3.0678933486e-02
 3.0770044774e-02
 3.0861437321e-02
 3.0953090638e-02
 3.1045025215e-02
 3.1137220562e-02
 3.1229704618e-02
 3.1322453171e-02
 3.1415481120e-02
 3.1508781016e-02
 3.1602356583e-02
 3.1696218997e-02
 3.1790353358e-02
 3.1884774566e-02
 3.1979463995e-02
 3.2074447721e-02
 3.2169703394e-02
 3.2265242189e-02
 3.2361071557e-02
 3.2457180321e-02
 3.2553583384e-02
 3.2650262117e-02
 3.2747235149e-02
 3.2844491303e-02
 3.2942030579e-02
 3.3039871603e-02
 3.3137995750e-02
 3.3236421645e-02
 3.3335126936e-02
 3.3434137702e-02
 3.3533427864e-02
 3.3633019775e-02
 3.3732913435e-02
 3.3833093941e-02
 3.3933583647e-02
 3.4034360200e-02
 3.4135445952e-02
 3.4236822277e-02
 3.4338500351e-02
 3.4440487623e-02
 3.4542772919e-02
 3.4645367414e-02
 3.4748256207e-02
 3.4851465374e-02
 3.4954968840e-02
 3.5058777779e-02
 3.5162907094e-02
 3.5267334431e-02
 3.5372082144e-02
 3.5477131605e-02
 3.5582501441e-02
 3.5688176751e-02
 3.5794164985e-02
 3.5900477320e-02
 3.6007095128e-02
 3.6114040762e-02
 3.6221295595e-02
 3.6328874528e-02
 3.6436766386e-02
 3.6544974893e-02
 3.6653518677e-02
 3.6762375385e-02
 3.6871563643e-02
 3.6981064826e-02
 3.7090905011e-02
 3.7201058120e-02
 3.7311539054e-02
 3.7422358990e-02
 3.7533495575e-02
 3.7644974887e-02
 3.7756774575e-02
 3.7868916988e-02
 3.7981379777e-02
 3.8094177842e-02
 3.8207322359e-02
 3.8320790976e-02
 3.8434609771e-02
 3.8548752666e-02
 3.8663249463e-02
 3.8778070360e-02
 3.8893233985e-02
 3.9008755237e-02
 3.9124600589e-02
 3.9240807295e-02
 3.9357345551e-02
 3.9474245161e-02
 3.9591476321e-02
 3.9709050208e-02
 3.9826992899e-02
 3.9945274591e-02
 4.0063917637e-02
 4.0182899684e-02
 4.0302246809e-02
 4.0421936661e-02
 4.0541995317e-02
 4.0662396699e-02
 4.0783159435e-02
 4.0904290974e-02
 4.1025768965e-02
 4.1147619486e-02
 4.1269820184e-02
 4.1392397135e-02
 4.1515327990e-02
 4.1638620198e-02
 4.1762292385e-02
 4.1886314750e-02
 4.2010724545e-02
 4.2135491967e-02
 4.2260635644e-02
 4.2386144400e-02
 4.2512021959e-02
 4.2638290673e-02
 4.2764917016e-02
 4.2891934514e-02
 4.3019317091e-02
 4.3147087097e-02
 4.3275229633e-02
 4.3403748423e-02
 4.3532665819e-02
 4.3661948293e-02
 4.3791629374e-02
 4.3921682984e-02
 4.4052135199e-02
 4.4182963669e-02
 4.4314175844e-02
 4.4445797801e-02
 4.4577792287e-02
 4.4710192829e-02
 4.4842977077e-02
 4.4976163656e-02
 4.5109737664e-02
 4.5243702829e-02
 4.5378085226e-02
 4.5512851328e-02
 4.5648027211e-02
 4.5783594251e-02
 4.5919582248e-02
 4.6055950224e-02
 4.6192727983e-02
 4.6329926699e-02
 4.6467520297e-02
 4.6605534852e-02
 4.6743940562e-02
 4.6882778406e-02
 4.7022011131e-02
 4.7161657363e-02
 4.7301735729e-02
 4.7442212701e-02
 4.7583125532e-02
 4.7724433243e-02
 4.7866184264e-02
 4.8008341342e-02
 4.8150915653e-02
 4.8293933272e-02
 4.8437353224e-02
 4.8581216484e-02
 4.8725493252e-02
 4.8870220780e-02
 4.9015354365e-02
 4.9160916358e-02
 4.9306932837e-02
 4.9453366548e-02
 4.9600247294e-02
 4.9747556448e-02
 4.9895312637e-02
 5.0043489784e-02
 5.0192110240e-02
 5.0341185182e-02
 5.0490692258e-02
 5.0640653819e-02
 5.0791051239e-02
 5.0941906869e-02
 5.1093190908e-02
 5.1244929433e-02
 5.1397133619e-02
 5.1549773663e-02
 5.1702886820e-02
 5.1856435835e-02
 5.2010454237e-02
 5.2164915949e-02
 5.2319850773e-02
 5.2475232631e-02
 5.2631072700e-02
 5.2787400782e-02
 5.2944164723e-02
 5.3101416677e-02
 5.3259119391e-02
 5.3417306393e-02
 5.3575947881e-02
 5.3735055029e-02
 5.3894657642e-02
 5.4054714739e-02
 5.4215263575e-02
 5.4376274347e-02
 5.4537776858e-02
 5.4699745029e-02
 5.4862193763e-02
 5.5025137961e-02
 5.5188555270e-02
 5.5352475494e-02
 5.5516857654e-02
 5.5681753904e-02
 5.5847119540e-02
 5.6012976915e-02
 5.6179340929e-02
 5.6346181780e-02
 5.6513540447e-02
 5.6681372225e-02
 5.6849721819e-02
 5.7018555701e-02
 5.7187888771e-02
 5.7357750833e-02
 5.7528089732e-02
 5.7698957622e-02
 5.7870313525e-02
 5.8042194694e-02
 5.8214571327e-02
 5.8387454599e-02
 5.8560874313e-02
 5.8734789491e-02
 5.8909241110e-02
 5.9084191918e-02
 5.9259675443e-02
 5.9435665607e-02
 5.9612177312e-02
 5.9789236635e-02
 5.9966798872e-02
 6.0144908726e-02
 6.0323525220e-02
 6.0502696782e-02
 6.0682378709e-02
 6.0862597078e-02
 6.1043366790e-02
